remix/Device/cast-fill.svg

<svg viewBox="0 0 24 24" fill="currentColor" xmlns="http://www.w3.org/2000/svg"><path d="M3 3H21C21.5523 3 22 3.44772 22 4V20C22 20.5523 21.5523 21 21 21H15C15 20.3199 14.9478 19.6519 14.8471 19H20V5H4V8.1529C3.34806 8.05223 2.68013 8 2 8V4C2 3.44772 2.44772 3 3 3ZM13 21H11C11 16.0294 6.97056 12 2 12V10C8.07513 10 13 14.9249 13 21ZM9 21H7C7 18.2386 4.76142 16 2 16V14C5.86599 14 9 17.134 9 21ZM5 21H2V18C3.65685 18 5 19.3431 5 21ZM14.373 17C13.093 13.0376 9.9624 9.90704 6 8.627V7H18V17H14.373Z"/></svg>

<svg viewBox="0 0 24 24" xmlns="http://www.w3.org/2000/svg"><path fill="none" d="M0 0h24v24H0Z"/><path d="M3 3h18v0c.55 0 1 .44 1 1v16 0c0 .55-.45 1-1 1h-6v0c0-.67-.06-1.34-.16-2h5.15V5h-16v3.15h0c-.67-.11-1.34-.16-2-.16v-4 0c0-.56.44-1 1-1Zm10 18h-2v0c0-4.98-4.03-9-9-9v-2c6.07 0 11 4.92 11 11Zm-4 0H7v0c0-2.77-2.24-5-5-5v-2 0c3.86 0 7 3.13 7 7Zm-4 0H2v-3 0c1.65 0 3 1.34 3 3Zm9.37-4v-.001c-1.29-3.98-4.41-7.09-8.38-8.38V6.98h12v10h-3.63Z"/></svg>
